X: 29943
T: O'Sullivan's March
R: jig
M: 6/8
K: Gmajor
|:D|"G"GBA ABd|"C"edB "D"A2D|"G"GBA B2G|"D"AGF "G"GED|
"G"GBA ABd|"C"edB "D"A2D|"G"GBA B2G|"D"AGF "G"G2:|
|:g|"C"e2g e2g|ege edB|"G"ded dBd|"C"dgB "D"BAG|
"C"cBc "G"dcd|"C"egB "D"A2D|"G"GBA B2G|"D"AGF "G"G2:|

